X:362
T: ES GRAST EIN MAEDEL HUEBSCH UND FEIN
N: E0204
O: Europa, Mitteleuropa, Deutschland, Schlesien, Neisse, Korkwitz
R: erzaehlendes Volks - Lied, Todes - Ahnung; betrogene Liebe
M: 2/4
L: 1/8
K: F
F2 | F2c2 | A2GF | G2B2 | A2z
F | cccA | dcd
c | BABG | ccc
B | A2d2 | c3
A | cBGB | A2

@@@ Tune index: 4012
